assets/icons/lib/delete.svg

<svg class="Icon Icon-delete" width="24" height="24" viewBox="0 0 24 24" fill="none" xmlns="http://www.w3.org/2000/svg">
<path fill-rule="evenodd" clip-rule="evenodd" d="M22 12C22 17.5228 17.5228 22 12 22C6.47715 22 2 17.5228 2 12C2 6.47715 6.47715 2 12 2C17.5228 2 22 6.47715 22 12ZM15.7071 8.29289C16.0976 8.68342 16.0976 9.31658 15.7071 9.70711L13.4142 12L15.7071 14.2929C16.0976 14.6834 16.0976 15.3166 15.7071 15.7071C15.3166 16.0976 14.6834 16.0976 14.2929 15.7071L12 13.4142L9.70711 15.7071C9.31658 16.0976 8.68342 16.0976 8.29289 15.7071C7.90237 15.3166 7.90237 14.6834 8.29289 14.2929L10.5858 12L8.29289 9.70711C7.90237 9.31658 7.90237 8.68342 8.29289 8.29289C8.68342 7.90237 9.31658 7.90237 9.70711 8.29289L12 10.5858L14.2929 8.29289C14.6834 7.90237 15.3166 7.90237 15.7071 8.29289Z" fill="currentColor"/>
</svg>

<svg class="Icon Icon-delete" viewBox="0 0 24 24" fill="none" xmlns="http://www.w3.org/2000/svg"><path fill-rule="evenodd" clip-rule="evenodd" d="M22 12c0 5.523-4.477 10-10 10S2 17.523 2 12 6.477 2 12 2s10 4.477 10 10Zm-6.293-3.707a1 1 0 0 1 0 1.414L13.414 12l2.293 2.293a1 1 0 0 1-1.414 1.414L12 13.414l-2.293 2.293a1 1 0 0 1-1.414-1.414L10.586 12 8.293 9.707a1 1 0 0 1 1.414-1.414L12 10.586l2.293-2.293a1 1 0 0 1 1.414 0Z" fill="currentColor"/></svg>
